X: 16
T: JIGS: Jackie Small's Set
T: Jackie Small's / Tailor Small's
C: C: Trad.; S: Polca an Rí
C: Set Leaders: Sophie, Anton
Z: Anton Zille ed., Oleg Naumov arr.; zoronic / NfldWhistler / stutty at The Session
N: https://thesession.org/members/26966/sets/99584
R: Jig
M: 6/8
L: 1/8
Q: 3/8=116
K: Emix
|:"E"~E3 cEE|BEE "D"AFD|"E"~E3 cdc|"D"BAF "D/F#"AFD|
"E"~E3 cEE|BEE "(A)"ABc|"D"d2f edB|1 BAF "D/F# (A)"AFD:|2 BAF "D/F# (A)"Ade||
|:"D/F#"fdf "(Em)"ece|"D"edB ABd|"D/F#"fdf "(Em)"ece|"D"edB "(D/B)"B2d|
"D/F#"fdf "(Em)"ece|"D"edB ABc|"D/B"d2f edB|1 "A"BAF "(Em)"Ade:|2 BAF "D/F# (A)"AFD||
T: Rolling Waves or Lonesome / Maguire's Clan March
K: Dmaj
|:"D (G)"F2E "(A)"EDE|"D"F2D "(D/F#)"DED|"G"F2E EFA|"A"d2e fdA|
"D (G)"F2E "(A)"EDE|"D"F2D "(D/B)"DED|"D/F#"AFE EFA|1 "G"BAB d2A:|2 "G"BAB d3||
|:"Asus4"AB/c/d e2f|"D"d2c "(D/B)"B2d|"Asus4"AB/c/d e2f|"Bm"d2c B2d|
"A/C#"AB/c/d ede|"D"fdB BAF|"D/F#"AFE EFA|1 "G"BAB d3:|2 "G"d2e "A"fdA||
T: Behind the Haystack / Munster Buttermilk No. 2
K: Dmaj
|:"D"d2e fdB|"Bm"d2e fdB|"Cadd9"AFE ~E3|AFE EFA|
"D"d2e fdB|"Bm"d2e fdB|"G"AFD ~D3|"(D)"AFD "(A)"DFA:||
|:"G"~B3 BAF|ABc dcB|"A"AFE ~E3|AFE EFA|
"G"~B3 BAF|"A"ABc dcB|"D"AFD ~D3|1 AFD DFA:|2 AFD D2f||
|:"G"~g3 "(D/F#)"faf|"Em"ede fdB|"A"AFE ~E3|AFE E2f|
"G"~g3 "(D/F#)"faf|"Em"ede fdB|"D"AFD ~D3|1 AFD D2f:|2 AFD DFA||

